src/media/images/microphone.svg

<svg xmlns="http://www.w3.org/2000/svg" xmlns:xlink="http://www.w3.org/1999/xlink" version="1.1" x="0px" y="0px" viewBox="0 0 100 125" enable-background="new 0 0 100 100" fill="#ffffff" xml:space="preserve"><path d="M50,63.9L50,63.9c-6.6,0-11.9-5.4-11.9-11.9V28.2c0-6.6,5.4-11.9,11.9-11.9h0c6.6,0,11.9,5.4,11.9,11.9v23.8  C61.9,58.5,56.6,63.9,50,63.9z"/><rect x="50" y="21" width="0" height="0"/><path d="M70.3,52L70.3,52c-1.5,0-2.7,1.1-2.9,2.6c-1.2,8.5-8.6,15-17.4,15c-8.8,0-16.1-6.5-17.4-15c-0.2-1.5-1.4-2.6-2.9-2.6h0  c-1.8,0-3.2,1.5-2.9,3.3c1.4,10.3,9.7,18.5,20,19.9v8.6h6.3v-8.6c10.4-1.4,18.6-9.6,20.1-19.9C73.4,53.5,72,52,70.3,52z"/></svg>

<?xml version="1.0" encoding="UTF-8" standalone="no"?>
<!DOCTYPE svg PUBLIC "-//W3C//DTD SVG 1.1//EN" "http://www.w3.org/Graphics/SVG/1.1/DTD/svg11.dtd">
<svg width="100%" height="100%" viewBox="0 0 100 100" version="1.1" xmlns="http://www.w3.org/2000/svg" xmlns:xlink="http://www.w3.org/1999/xlink" xml:space="preserve" xmlns:serif="http://www.serif.com/" style="fill-rule:evenodd;clip-rule:evenodd;stroke-linejoin:round;stroke-miterlimit:2;">
    <g transform="matrix(1,0,0,1,-0.240647,-1.14093)">
        <g transform="matrix(1,0,0,1,0.240647,1.09093)">
            <path d="M50,63.9C43.4,63.9 38.1,58.5 38.1,52L38.1,28.2C38.1,21.6 43.5,16.3 50,16.3C56.6,16.3 61.9,21.7 61.9,28.2L61.9,52C61.9,58.5 56.6,63.9 50,63.9Z" style="fill:white;fill-rule:nonzero;"/>
        </g>
        <g transform="matrix(1,0,0,1,0.251431,1.09093)">
            <path d="M70.3,52C68.8,52 67.6,53.1 67.4,54.6C66.2,63.1 58.8,69.6 50,69.6C41.2,69.6 33.9,63.1 32.6,54.6C32.4,53.1 31.2,52 29.7,52C27.9,52 26.5,53.5 26.8,55.3C28.2,65.6 36.5,73.8 46.8,75.2L46.8,83.8L53.1,83.8L53.1,75.2C63.5,73.8 71.7,65.6 73.2,55.3C73.4,53.5 72,52 70.3,52Z" style="fill:white;fill-rule:nonzero;"/>
        </g>
    </g>
    <g transform="matrix(1,0,0,1,0.240647,0.2)">
        <path d="M50,21" style="fill:white;"/>
    </g>
</svg>
